X:1
T:Title
%%score { ( 1 3 4 ) | ( 2 5 ) }
L:1/8
M:4/4
K:Bb
V:1 treble nm="Grand Piano"
V:3 treble 
V:4 treble 
V:2 bass 
V:5 bass 
V:1
 z4 z2[Q:1/4=100] [B,D]>[CE] | [DF]>[DF] [DF]>[DF] [EG]2 [DF]2 | z4 c2 z2 | A>A A>A G2 F2 | %4
 z4 B2 z2 | [DF]>[DF] [DF]>[DF] [EG]2 [DF]2 | z4 c2 z2 | A>A A>A G2 [A,EF]2 |[M:3/4] z2 (3GFD- D2 | %9
[M:1/4] D>[CE] |[M:4/4] [DF]>[_D=E] [=DF]4 [DB]>[Dc] | [DB]>[DA] c4 C>D | E>D E4 G2 | [DF]6 z2 | %14
 [DF]>[_D=E] [=DF]4 [DB]>[_Ec] | [Fd]>[FB] [EG]4 [Ge]>[Ge] | [df]4 e4 |[M:3/4] [Dd]2 e2 d2 |] %18
V:2
 z4 z2 [B,,F,]>[B,,F,] | [B,,B,]>[B,,B,] [B,,B,]>[B,,B,] [B,,B,]2 [B,,B,]2 | [C,B,]2 G,2 C2 z2 | %3
 [F,CF]>[F,CF] [F,CF]>[F,CF] [F,B,F]2 [F,A,]2 | [B,,B,]6 [B,,F,B,]>[B,,F,] | %5
 [B,,B,]>[B,,B,] [B,,B,]>[B,,B,] [B,,B,]2 [B,,B,]2 | [C,B,]2 G,2 C2 z2 | %7
 [F,CE]>[F,CE] [F,CE]>[F,CE] [F,B,E]2 F,,2 |[M:3/4] (3:2:2z D2- D2 z2 |[M:1/4] [B,,F,B,]>[B,,F,] | %10
[M:4/4] [B,,B,]>[B,,B,] [B,,B,]4 [B,,F,]>[B,,F,] | [B,,F,]>[B,,F,] [F,A,E]4 [F,A,]>[F,B,] | %12
 [F,A,C]>[F,_A,=B,] [F,=A,C]4 [F,A,E]2 | [B,,B,]2 B,,2 B,,2 [B,,F,B,]>[B,,F,] | %14
 [B,,B,]>[B,,B,] [B,,B,]4 [B,,B,]>[B,,B,] | [B,,B,]>[D,B,] [E,B,]4 [C,C]>[C,C] | %16
 [B,F]2 B,2 [A,E]2 A,2 |[M:3/4] B,2 [G,E]2 [F,D]2 |] %18
V:3
 x8 | x8 | [CE]2 c2 (3z GA (3BAG | x8 | z2 (3AGF- F2 z2 | x8 | [C=E]2 c2 (3z GA (3BAG | x8 | %8
[M:3/4] (3[B,-DB-][B,B]-[B,-FB-] [B,B-]2 B2 |[M:1/4] x2 |[M:4/4] x8 | x8 | x8 | z2 B,2 B,2 D>[CE] | %14
 x8 | x8 | z2 E2 z2 E2 |[M:3/4] B6 |] %18
V:4
 x8 | x8 | z2 E4 z2 | x8 | (3[Fd-][Fd]-[F-Gd-] [Fd-]2 d2 D>[CE] | x8 | z2 =E4 z2 | x8 | %8
[M:3/4] z2 z2 B,2 |[M:1/4] x2 |[M:4/4] x8 | x8 | x8 | x8 | x8 | x8 | x8 |[M:3/4] x6 |] %18
V:5
 x8 | x8 | z2 C,4 z2 | x8 | x8 | x8 | z2 C,4 z2 | x8 |[M:3/4] B,,6 |[M:1/4] x2 |[M:4/4] x8 | x8 | %12
 x8 | x8 | x8 | x8 | F,4 [E,,c]4 |[M:3/4] B,,6 |] %18

